X:1
T:Just Trust in Me
T:Just Trust in Me
T:Charles Hutchinson Gabriel, 1905
T:Susan Helen Peterson, 1998
T:Public Domain Courtesy of the Cyber Hymnal™
T:Public Domain Courtesy of the Cyber Hymnal™
C:Charles Hutchinson Gabriel, 1905
Z:Public Domain
Z:Courtesy of the Cyber Hymnal™
%%score ( 1 2 ) ( 3 4 )
L:1/8
Q:1/4=95
M:3/4
K:G
V:1 treble 
V:2 treble 
V:3 bass 
V:4 bass 
V:1
 [B,D] | [B,D][B,E] [B,E]3 [B,D] | [DB][DB] [Ec]3 [DB] | [CB][CA] [CD]3 [CA] | %4
w: 1.~I|am the way, the|truth, the life; Just|fol- low Me and|
w: 2.~I’m|the good shep- herd|of the sheep, The|door to guard you|
w: 3.~The|bread of life— come|eat and see, My|strength each day is|
w: 4.~I|am the re- sur-|rect- ion, too; I|bring e- ter- nal|
 [CA][B,G] [B,G]3 [B,D] | [B,D][B,E] [B,E]3 [B,D] | [DB][DB] [Ec]3 [DB] | [^CB][CA] [CA]2 [CE]2 | %8
w: leave your strife. I|am this dark world’s|on- ly light; Can|you not trust in|
w: from the thief. Your|high- est good I|al- ways seek, Can|you not trust in|
w: yours for free. I|am the vine; re-|main in Me; Can|you not trust in|
w: life to you. Your|cares on earth are|but a few; Can|you not trust in|
 A4- [DA] ||"^Refrain" [CD] | [B,D][DG] [GB]3 [Gd] | [Fd][DF] [DF]3 D | [DF][FA] [Fc]3 [Fe] | %13
w: Me? *|||||
w: Me? When||you’re a- fraid, just|trust in Me. When|your hopes fade, just|
w: Me? *|||||
w: Me? *|||||
 [Ge][Gd] [Gd]3 [B,D][DG][GB] [Gd]3 [Gd] | [=Fe][Fd] [Ec]3 [Ec] | [EG][_EG] [DB][Gd] | %16
w: |||
w: trust in Me. When prayers you’ve made have|been del- ayed, Don’t|be dis- mayed— just|
w: |||
w: |||
 [GB]2 [FA]2 G- | G4- G |] %18
w: ||
w: trust in Me.||
w: ||
w: ||
V:2
 x | x6 | x6 | x6 | x6 | x6 | x6 | x6 | CD FE x || x | x6 | x5 D | x6 | x12 | x6 | x4 | x4 G- | %17
 G4- G |] %18
V:3
 [G,,G,] | [G,,G,][G,,G,] [G,,G,]3 [G,,G,] | G,G, G,3 G, | [D,F,][D,F,] [D,F,]3 [D,F,] | %4
 [G,,G,][G,,G,] [G,,G,]3 [G,,G,] | [G,,G,][G,,G,] [G,,G,]3 [G,,G,] | G,G, G,3 [G,,G,] | %7
 [A,,G,][A,,G,] [A,,G,]2 [A,,G,]2 | (F,F, A,G, [D,F,]) || [D,F,] | [G,,G,][G,,B,] [G,D]3 [G,B,] | %11
 [D,A,][D,C] [D,C]3 [D,F,] | [D,A,][D,D] [D,A,]3 [D,C] | %13
 [G,C][G,B,] [G,B,]3 G,[G,B,][G,D] [G,B,]3 [G,B,] | [G,B,][B,,G,] [C,G,]3 [C,G,] | %15
 [C,G,][C,G,] [D,G,][D,B,] | [D,D]2 [D,C]2 [G,,G,B,]- | [G,,G,B,]4- [G,,G,B,] |] %18
V:4
 x | x6 | G,G, G,3 G, | x6 | x6 | x6 | G,G, G,3 x | x6 | D,4- x || x | x6 | x6 | x6 | x5 G, x6 | %14
 x6 | x4 | x5 | x5 |] %18

